X: 22227
T: La Croisette
R: reel
M: 4/4
K: Eminor
K:F#min
|:F2cF dFcF|B~E3 GBGE|F2cF dcAc|DFAD FAGB|
F3c d2cA|ABBA GBGE|F2cF dcAc|1 DFAD FAGB:|2 DFAD FAAB||
|:c3e2ecB|A2B3BAB|c~F3 ABcD-|D2FA dcBA|
c3e2ecB|A2B3BAB|c~A3 F~A3|1 cAeA ffe2:|2 cAeA fAeA||

